X:0913
T:Mr. F.H. Bindon's March.
T:for the Flute.
C:by F.H.B.
M:C
L:1/8
Q:1/2=66
I: :: :: :|
Z:Jack Campin * www.campin.me.uk * 2009
K:G
 Bc                         |d2dd d2    gd  |c2Ac B2    G2  | BGdB                 gd``cB |A2AA  A2
 Bc                         |d2dd d2    gd  |c2Ad b2    G2  | B/G/d/B/    g/e/d/c/ B2  A2 |G2GG  G2:|
 Bc                         |d2gd b2    gd  |c2Ad B2    G2  |.b.a.g.f             .e.d.c.B|A2AA  A2
 ga                         |d'4  c'2(3(bdd)|a4   g2 (3(fdd)| G/B/d/g/ (3(edc)     B2  A2 |G2GG  G2:|
 z2                         |A4   G2 (3(FDD)|d4   c2 (3(BGG)| BG``````````dB       gd``cB |A2A>A A2
(d//e//f//g//a//b//c'//d'//)|d'4  c'2(3(gdd)|a4   g2 (3(fdd)| G/B/d/g/ (3(edc)     B2  A2 |G2GG  G2:|
<end>
<start>
